X: 136
T:Missa La sol fa re mi / Kyrie
N: Derived from Jos1102a-Missa_La_sol_fa_re_mi-Kyrie.krn
C: Josquin des Prez
%%abc-version 2.0
%%abcx-abcm2ps-target-version 5.9.1 (29 Sep 2008)
%%abc-creator hum2abc beta
%%abcx-conversion-date 2019/02/12 16:15:44
%%abc-edited-by Jesse Rodin
%%abc-edited-by Jesse Rodin 2002/10/19; Victoria Chang 2011/05/04
%%abcx-initial-encoding-date 2011/05/04/
%%humdrum-veritas 917104038
%%humdrum-veritas-data 633580563
%%linebreak <none>
%%barnumbers 0
L: 1/4
M: 3/1
Q: 1/2=120
%%staves [1 2 3 4]
V: 1 clef=treble
V: 2 clef=treble-8
V: 3 clef=treble-8
V: 4 clef=bass
K: C
[V:1] A8G4 | 
[V:2] A8B2c2 | 
[V:3] z12 | 
[V:4] z12 | 
[V:1] F8D4 | 
[V:2] d4z2A2B2d2 | 
[V:3] z12 | 
[V:4] z12 | 
[V:1] E4A4G4 | 
[V:2] c2A4GFE4 | 
[V:3] z12 | 
[V:4] z12 | 
[V:1] F8D4 | 
[V:2] D2d3ef4ed | 
[V:3] z12 | 
[V:4] z12 | 
[V:1] E2G3FG2A2B2 | 
[V:2] c4z2C2F2G2 | 
[V:3] e8d4 | 
[V:4] z12 | 
[V:1] c3BG2A3GFE | 
[V:2] A3GE2F4D2 | 
[V:3] c8A4 | 
[V:4] z12 | 
[V:1] D2G3CC2D2F2 | 
[V:2] G3EE2A2z2D2 | 
[V:3] B4e4d4 | 
[V:4] z12 | 
[V:1] E3A,A,2A4^G2 | 
[V:2] A6F2E4 | 
[V:3] c6A2B4 | 
[V:4] z12 | 
[V:1] A8z4 | 
[V:2] e3dc2A2B4 | 
[V:3] z2A4c2d2e2 | 
[V:4] A,8G,4 | 
[V:1] A8A4 | 
[V:2] z2A6d4 | 
[V:3] f2c2d2c2f4 | 
[V:4] F,8D,4 | 
[V:1] G4c4B4 | 
[V:2] B2e4c2d2e2 | 
[V:3] e3dc2A2B2E2 | 
[V:4] E,4A,4G,4 | 
[V:1] A12 | 
[V:2] f2c2d2c2f4 | 
[V:3] z2A2D2A3d3 | 
[V:4] F,8D,4 | 
[V:1] G12 ||  
[V:2] e12 ||  
[V:3] B12 ||  
[V:4] E,12 ||  
[V:1] [M:2/1]A8 | 
[V:2] [M:2/1]z8 | 
[V:3] [M:2/1]z8 | 
[V:4] [M:2/1]z8 | 
[V:1] G4G4 | 
[V:2] e8 | 
[V:3] z8 | 
[V:4] z8 | 
[V:1] F4D4 | 
[V:2] d8 | 
[V:3] z8 | 
[V:4] z8 | 
[V:1] E4A4- | 
[V:2] c4A4 | 
[V:3] z8 | 
[V:4] z8 | 
[V:1] A2G2G4 | 
[V:2] B4e4- | 
[V:3] z8 | 
[V:4] z8 | 
[V:1] F4D4 | 
[V:2] e2d2d4 | 
[V:3] z8 | 
[V:4] z8 | 
[V:1] E8- | 
[V:2] c4A4 | 
[V:3] A8 | 
[V:4] z8 | 
[V:1] E8 | 
[V:2] B8 | 
[V:3] G8 | 
[V:4] E,8 | 
[V:1] z8 | 
[V:2] z8 | 
[V:3] F4D4 | 
[V:4] D,8 | 
[V:1] z8 | 
[V:2] z8 | 
[V:3] E4A4- | 
[V:4] C,4A,,4 | 
[V:1] z8 | 
[V:2] z8 | 
[V:3] A2G2G4 | 
[V:4] B,,4E,4- | 
[V:1] z8 | 
[V:2] z8 | 
[V:3] F6D2 | 
[V:4] E,4D,4 | 
[V:1] z8 | 
[V:2] e8 | 
[V:3] E2FGA2c2 | 
[V:4] C,4A,,4 | 
[V:1] z4B4 | 
[V:2] d8 | 
[V:3] B2A4^G2 | 
[V:4] B,,8 | 
[V:1] c6BA | 
[V:2] c8 | 
[V:3] A8 | 
[V:4] z4A,4- | 
[V:1] c4B4 | 
[V:2] A4B4 | 
[V:3] e8 | 
[V:4] A,4G,4 | 
[V:1] A8 | 
[V:2] c4d4 | 
[V:3] f8 | 
[V:4] F,4D,4 | 
[V:1] G4c4- | 
[V:2] B4A4 | 
[V:3] e8 | 
[V:4] E,4A,4- | 
[V:1] c4B4 | 
[V:2] e8 | 
[V:3] A4B4 | 
[V:4] A,4G,4 | 
[V:1] A2c2B2A2- | 
[V:2] f8 | 
[V:3] c4d4 | 
[V:4] F,4D,4 | 
[V:1] A2^G^FG4 | 
[V:2] e8 | 
[V:3] B4E4 | 
[V:4] E,8 | 
[V:1] A8- | 
[V:2] c4d4 | 
[V:3] F6ED | 
[V:4] z4D,4- | 
[V:1] A8 | 
[V:2] A8 | 
[V:3] F4E4 | 
[V:4] D,4C,4 | 
[V:1] D4d4 | 
[V:2] _B8 | 
[V:3] F4G4 | 
[V:4] _B,,4G,,4 | 
[V:1] c4A4- | 
[V:2] A6G2 | 
[V:3] E4D4 | 
[V:4] A,,4D,4- | 
[V:1] A2B2c4 | 
[V:2] F4E4 | 
[V:3] A8 | 
[V:4] D,4C,4 | 
[V:1] d8 | 
[V:2] F4G4 | 
[V:3] _B8 | 
[V:4] _B,,4G,,4 | 
[V:1] c8 ||  
[V:2] E8 ||  
[V:3] A8 ||  
[V:4] A,,8 ||  
[V:1] [M:3/1]A4G2F4D2 | 
[V:2] [M:3/1]A4B2A2d4 | 
[V:3] [M:3/1]z12 | 
[V:4] [M:3/1]z12 | 
[V:1] E2A2G2F4D2 | 
[V:2] c2F2E2D2d4 | 
[V:3] z12 | 
[V:4] z12 | 
[V:1] E2A2G2F2D4 | 
[V:2] c2A2B2A2B2d2 | 
[V:3] z12 | 
[V:4] z12 | 
[V:1] E4z4A4 | 
[V:2] c4B2A2c2d2 | 
[V:3] z12 | 
[V:4] A,4G,2F,4D,2 | 
[V:1] G2c2B2A4GF | 
[V:2] B2A2z2A2c2d2 | 
[V:3] z12 | 
[V:4] E,2A,2G,2F,4D,2 | 
[V:1] G2E2G2A2F4 | 
[V:2] B2c2B2c2dcBA | 
[V:3] z12 | 
[V:4] E,2A,2G,2F,2D,4 | 
[V:1] EFGAB2c2A2c2 | 
[V:2] G3FG2A2c3d | 
[V:3] e4d2c4A2 | 
[V:4] E,4z4A,4 | 
[V:1] B4z4c4 | 
[V:2] efg4e2f2e2- | 
[V:3] B2e2d2c4A2 | 
[V:4] G,2E,2G,2A,2F,2A,2 | 
[V:1] B3AB2c4BA | 
[V:2] edg3fe4d2 | 
[V:3] B2e2d2c2A4 | 
[V:4] G,2E,2G,2A,2F,4 | 
[V:1] G2c2B2A4^G2 | 
[V:2] e4z4e4 | 
[V:3] B2e3dcAB4 | 
[V:4] E,2C,2D,2F,2E,4 | 
[V:1] A2c2B2A3GF2 | 
[V:2] c4d8 | 
[V:3] z2A2G2F4D2 | 
[V:4] A,,4z4D,4 | 
[V:1] E4z4F4 | 
[V:2] G2c4A2_B2A2- | 
[V:3] E2A2G2F4D2 | 
[V:4] C,2A,,2C,2D,2_B,,2D,2 | 
[V:1] E3DE2F4ED | 
[V:2] AGc3_BA4G2 | 
[V:3] E2A2G2F2D4 | 
[V:4] C,2A,,2C,2D,2_B,,4 | 
[V:1] C4B,2A,2C3D | 
[V:2] A2E2G2A2F4 | 
[V:3] E2e2d2c4A2 | 
[V:4] A,,4z4A,4 | 
[V:1] EFG4E2F2E2- | 
[V:2] E4z4z4 | 
[V:3] B2e2d2c2A4 | 
[V:4] G,2E,2G,2A,2F,2A,2 | 
[V:1] EDG3FE4D2 | 
[V:2] z4z4D4 | 
[V:3] B2e2d2c2A4 | 
[V:4] G,2E,2G,2A,2F,4 | 
[V:1] E12 |]  
[V:2] G12 |]  
[V:3] B12 |]  
[V:4] E,12 |]  



